;FLAVOR:UltiGCode
;TIME:8515
;MATERIAL:15531
;MATERIAL2:0
;NOZZLE_DIAMETER:0.4
;MINX:69.71
;MINY:87.166
;MINZ:0.27
;MAXX:152.75
;MAXY:135.643
;MAXZ:31.47
;Generated with Cura_SteamEngine 4.13.1
M82 ;absolute extrusion mode
G0 F3000 Y50 ;avoid prime blob
G92 E0
G92 E0
G10
;LAYER_COUNT:209
;LAYER:0
M107
G0 F4500 X72.708 Y91.51 Z0.27
;TYPE:SKIRT
G11
G1 F1800 X73.347 Y91.04 E0.07496
G1 X74.031 Y90.637 E0.14998
G1 X74.751 Y90.304 E0.22495
G1 X75.501 Y90.046 E0.2999
G1 X76.274 Y89.864 E0.37495
G1 X77.06 Y89.761 E0.44986
G1 X77.688 Y89.736 E0.50925
G1 X81.596 Y89.736 E0.87856
G1 X82.388 Y89.776 E0.9535
G1 X83.173 Y89.895 E1.02853
G1 X83.941 Y90.093 E1.10348
G1 X84.686 Y90.368 E1.17852
G1 X85.07 Y90.555 E1.21888
G1 X85.119 Y90.51 E1.22517
G1 X85.758 Y90.04 E1.30013
G1 X86.442 Y89.637 E1.37515
G1 X87.162 Y89.304 E1.45012
G1 X87.912 Y89.046 E1.52507
G1 X88.685 Y88.864 E1.60012
G1 X89.471 Y88.761 E1.67503
G1 X90.099 Y88.736 E1.73442
G1 X92.883 Y88.736 E1.99751
G1 X93.675 Y88.776 E2.07245
G1 X94.46 Y88.895 E2.14748
G1 X95.228 Y89.093 E2.22243
G1 X95.973 Y89.368 E2.29747
G1 X96.686 Y89.715 E2.37241
G1 X97.361 Y90.133 E2.44743
G1 X97.465 Y90.213 E2.45983
G1 X97.865 Y89.985 E2.50334
G1 X98.59 Y89.662 E2.57835
G1 X99.344 Y89.415 E2.65333
G1 X100.119 Y89.244 E2.72833
G1 X100.907 Y89.153 E2.80329
G1 X101.421 Y89.136 E2.85189
G1 X102.62 Y89.136 E2.96519
G1 X102.885 Y88.906 E2.99835
G1 X103.534 Y88.45 E3.07331
G1 X104.226 Y88.061 E3.14832
G1 X104.953 Y87.743 E3.22331
G1 X105.709 Y87.5 E3.29835
G1 X106.485 Y87.335 E3.37332
G1 X107.273 Y87.249 E3.44823
G1 X107.741 Y87.235 E3.49248
G1 X112.383 Y87.238 E3.93115
G1 X113.176 Y87.278 E4.00618
G1 X113.96 Y87.399 E4.08115
G1 X114.728 Y87.597 E4.1561
G1 X115.473 Y87.872 E4.23114
G1 X116.186 Y88.22 E4.30612
G1 X116.379 Y88.34 E4.32759
G1 X116.997 Y87.992 E4.39462
G1 X117.724 Y87.674 E4.4696
G1 X118.48 Y87.431 E4.54465
G1 X119.256 Y87.266 E4.61962
G1 X120.044 Y87.18 E4.69452
G1 X120.507 Y87.166 E4.7383
G1 X121.93 Y87.166 E4.87277
G1 X122.722 Y87.206 E4.94771
G1 X123.507 Y87.325 E5.02274
G1 X124.275 Y87.523 E5.09769
G1 X125.02 Y87.798 E5.17274
G1 X125.733 Y88.145 E5.24767
G1 X126.408 Y88.563 E5.3227
G1 X127.037 Y89.046 E5.39764
G1 X127.326 Y89.304 E5.43425
G1 X128.076 Y89.046 E5.5092
G1 X128.849 Y88.864 E5.58425
G1 X129.635 Y88.761 E5.65916
G1 X130.263 Y88.736 E5.71855
G1 X132.912 Y88.736 E5.96888
G1 X133.704 Y88.776 E6.04382
G1 X134.489 Y88.895 E6.11885
G1 X135.257 Y89.093 E6.1938
G1 X136.002 Y89.368 E6.26885
G1 X136.715 Y89.715 E6.34378
G1 X137.39 Y90.133 E6.41881
G1 X137.933 Y90.55 E6.48351
G1 X138.633 Y90.244 E6.5557
G1 X139.389 Y90.001 E6.63075
G1 X140.165 Y89.836 E6.70572
G1 X140.953 Y89.75 E6.78063
G1 X141.416 Y89.736 E6.8244
G1 X144.771 Y89.736 E7.14145
G1 X145.563 Y89.776 E7.21639
G1 X146.348 Y89.895 E7.29142
G1 X147.116 Y90.093 E7.36636
G1 X147.861 Y90.368 E7.44141
G1 X148.574 Y90.715 E7.51634
G1 X149.249 Y91.133 E7.59137
G1 X149.878 Y91.616 E7.66632
G1 X150.339 Y92.043 E7.7257
G1 X150.442 Y92.146 E7.73946
G1 X150.975 Y92.734 E7.81446
G1 X151.445 Y93.373 E7.88942
G1 X151.848 Y94.057 E7.96444
G1 X152.181 Y94.777 E8.03941
G1 X152.439 Y95.527 E8.11436
G1 X152.621 Y96.3 E8.1894
G1 X152.724 Y97.086 E8.26432
G1 X152.749 Y97.714 E8.32371
G1 X152.75 Y125.028 E10.90488
G1 X152.71 Y125.82 E10.97982
G1 X152.591 Y126.605 E11.05485
G1 X152.393 Y127.373 E11.1298
G1 X152.119 Y128.118 E11.20481
G1 X151.771 Y128.831 E11.27979
G1 X151.353 Y129.506 E11.35482
G1 X150.87 Y130.135 E11.42976
G1 X150.443 Y130.596 E11.48914
G1 X150.34 Y130.699 E11.50291
G1 X149.752 Y131.232 E11.5779
G1 X149.113 Y131.702 E11.65287
G1 X148.429 Y132.105 E11.72789
G1 X147.709 Y132.438 E11.80285
G1 X146.959 Y132.696 E11.8778
G1 X146.186 Y132.878 E11.95285
G1 X145.4 Y132.981 E12.02776
G1 X144.772 Y133.006 E12.08716
G1 X141.416 Y133.006 E12.4043
G1 X140.624 Y132.966 E12.47924
G1 X139.839 Y132.847 E12.55427
G1 X139.071 Y132.649 E12.62922
G1 X138.326 Y132.374 E12.70426
G1 X137.942 Y132.187 E12.74462
G1 X137.893 Y132.232 E12.75091
G1 X137.254 Y132.702 E12.82587
G1 X136.57 Y133.105 E12.90089
G1 X135.85 Y133.438 E12.97586
G1 X135.1 Y133.696 E13.05081
G1 X134.327 Y133.878 E13.12586
G1 X133.541 Y133.981 E13.20077
G1 X132.913 Y134.006 E13.26016
G1 X130.264 Y134.006 E13.51049
G1 X129.472 Y133.966 E13.58543
G1 X128.687 Y133.847 E13.66046
G1 X127.919 Y133.649 E13.73541
G1 X127.382 Y133.451 E13.7895
G1 X127.104 Y133.717 E13.82586
G1 X126.479 Y134.206 E13.90085
G1 X125.809 Y134.63 E13.97578
G1 X125.098 Y134.984 E14.05083
G1 X124.356 Y135.264 E14.12578
G1 X123.59 Y135.469 E14.20071
G1 X122.806 Y135.596 E14.27577
G1 X121.939 Y135.643 E14.35782
G1 X120.414 Y135.642 E14.50193
G1 X119.621 Y135.602 E14.57696
G1 X118.837 Y135.481 E14.65193
G1 X118.069 Y135.283 E14.72688
G1 X117.32 Y135.006 E14.80234
G1 X103.048 Y135.006 E16.15105
G1 X102.712 Y135.086 E16.18369
G1 X101.926 Y135.191 E16.25863
G1 X101.133 Y135.217 E16.3336
G1 X100.341 Y135.162 E16.40863
G1 X99.559 Y135.029 E16.48359
G1 X98.794 Y134.817 E16.55861
G1 X98.055 Y134.529 E16.63356
G1 X97.348 Y134.169 E16.70853
G1 X96.681 Y133.739 E16.78353
G1 X96.126 Y133.297 E16.85057
G1 X95.821 Y133.438 E16.88233
G1 X95.071 Y133.696 E16.95728
G1 X94.298 Y133.878 E17.03232
G1 X93.512 Y133.981 E17.10724
G1 X92.884 Y134.006 E17.16663
G1 X90.1 Y134.006 E17.42972
G1 X89.308 Y133.966 E17.50466
G1 X88.523 Y133.847 E17.57969
G1 X87.755 Y133.649 E17.65464
G1 X87.01 Y133.374 E17.72968
G1 X86.297 Y133.027 E17.80462
G1 X85.622 Y132.609 E17.87964
G1 X85.079 Y132.192 E17.94434
G1 X84.379 Y132.498 E18.01654
G1 X83.623 Y132.741 E18.09158
G1 X82.847 Y132.906 E18.16655
G1 X82.059 Y132.992 E18.24146
G1 X81.596 Y133.006 E18.28523
G1 X77.688 Y133.006 E18.65454
G1 X76.896 Y132.966 E18.72948
G1 X76.111 Y132.847 E18.80451
G1 X75.343 Y132.649 E18.87946
G1 X74.598 Y132.374 E18.9545
G1 X73.885 Y132.027 E19.02944
G1 X73.21 Y131.609 E19.10446
G1 X72.581 Y131.126 E19.17941
G1 X72.12 Y130.699 E19.23879
G1 X72.017 Y130.596 E19.25255
G1 X71.484 Y130.008 E19.32755
G1 X71.014 Y129.369 E19.40251
G1 X70.611 Y128.685 E19.47753
G1 X70.278 Y127.965 E19.5525
G1 X70.02 Y127.215 E19.62745
G1 X69.838 Y126.442 E19.7025
G1 X69.735 Y125.656 E19.77741
G1 X69.71 Y125.028 E19.8368
G1 X69.71 Y97.714 E22.41797
G1 X69.75 Y96.922 E22.49291
G1 X69.869 Y96.137 E22.56794
G1 X70.067 Y95.369 E22.64289
G1 X70.342 Y94.624 E22.71794
G1 X70.689 Y93.911 E22.79287
G1 X71.107 Y93.236 E22.8679
G1 X71.59 Y92.607 E22.94284
G1 X72.017 Y92.146 E23.00222
G1 X72.12 Y92.043 E23.01599
G1 X72.708 Y91.51 E23.09099
G0 F4500 X72.943 Y91.771
G1 F1800 X73.569 Y91.313 E23.16429
G1 X74.24 Y90.923 E23.23763
G1 X74.946 Y90.603 E23.31088
G1 X75.682 Y90.358 E23.38418
G1 X76.44 Y90.19 E23.45755
G1 X77.21 Y90.101 E23.5308
G1 X77.688 Y90.086 E23.576
G1 X81.596 Y90.086 E23.9453
G1 X82.371 Y90.126 E24.01864
G1 X83.137 Y90.245 E24.09189
G1 X83.887 Y90.443 E24.16519
G1 X84.613 Y90.717 E24.23853
G1 X85.128 Y90.975 E24.29296
G1 X85.354 Y90.771 E24.32173
G1 X85.98 Y90.313 E24.39503
G1 X86.651 Y89.923 E24.46837
G1 X87.357 Y89.603 E24.54162
G1 X88.093 Y89.358 E24.61493
G1 X88.851 Y89.19 E24.68829
G1 X89.621 Y89.101 E24.76154
G1 X90.099 Y89.086 E24.80674
G1 X92.883 Y89.086 E25.06983
G1 X93.658 Y89.126 E25.14316
G1 X94.424 Y89.245 E25.21642
G1 X95.174 Y89.443 E25.28972
G1 X95.9 Y89.717 E25.36305
G1 X96.593 Y90.064 E25.43629
G1 X97.247 Y90.481 E25.50959
G1 X97.436 Y90.631 E25.53239
G1 X98.07 Y90.273 E25.60119
G1 X98.781 Y89.964 E25.67445
G1 X99.521 Y89.73 E25.7478
G1 X100.28 Y89.573 E25.82104
G1 X101.421 Y89.486 E25.92918
G1 X102.746 Y89.486 E26.05439
G1 X103.226 Y89.086 E26.11344
G1 X103.87 Y88.654 E26.18672
G1 X104.555 Y88.291 E26.25998
G1 X105.274 Y87.999 E26.33331
G1 X106.019 Y87.784 E26.40659
G1 X106.782 Y87.646 E26.47986
G1 X107.741 Y87.585 E26.57067
G1 X112.383 Y87.588 E27.00934
G1 X113.157 Y87.628 E27.08258
G1 X113.924 Y87.748 E27.15594
G1 X114.674 Y87.947 E27.22927
G1 X115.399 Y88.221 E27.30251
G1 X116.092 Y88.569 E27.37579
G1 X116.386 Y88.756 E27.40872
G1 X116.641 Y88.585 E27.43774
G1 X117.326 Y88.222 E27.511
G1 X118.045 Y87.93 E27.58433
G1 X118.79 Y87.715 E27.65761
G1 X119.553 Y87.577 E27.73088
G1 X120.507 Y87.516 E27.82122
G1 X121.93 Y87.516 E27.95569
G1 X122.705 Y87.556 E28.02903
G1 X123.471 Y87.675 E28.10228
G1 X124.221 Y87.873 E28.17558
G1 X124.947 Y88.147 E28.24891
G1 X125.64 Y88.494 E28.32215
G1 X126.294 Y88.911 E28.39545
G1 X126.902 Y89.393 E28.46877
G1 X127.245 Y89.728 E28.51408
G1 X127.521 Y89.603 E28.54271
G1 X128.257 Y89.358 E28.61602
G1 X129.015 Y89.19 E28.68939
G1 X129.785 Y89.101 E28.76264
G1 X130.263 Y89.086 E28.80783
G1 X132.912 Y89.086 E29.05816
G1 X133.687 Y89.126 E29.13149
G1 X134.453 Y89.245 E29.20475
G1 X135.203 Y89.443 E29.27805
G1 X135.929 Y89.717 E29.35138
G1 X136.622 Y90.064 E29.42462
G1 X137.276 Y90.481 E29.49792
G1 X137.884 Y90.963 E29.57124
G1 X138.235 Y90.792 E29.60814
G1 X138.954 Y90.5 E29.68147
G1 X139.699 Y90.285 E29.75475
G1 X140.462 Y90.147 E29.82802
G1 X141.416 Y90.086 E29.91836
G1 X144.771 Y90.086 E30.23541
G1 X145.546 Y90.126 E30.30874
G1 X146.312 Y90.245 E30.382
G1 X147.062 Y90.443 E30.4553
G1 X147.788 Y90.717 E30.52863
G1 X148.481 Y91.064 E30.60187
G1 X149.135 Y91.481 E30.67517
G1 X149.743 Y91.963 E30.74849
G1 X150.195 Y92.393 E30.80744
G1 X150.714 Y92.969 E30.88071
G1 X151.172 Y93.595 E30.95401
G1 X151.562 Y94.266 E31.02735
G1 X151.882 Y94.972 E31.1006
G1 X152.127 Y95.708 E31.17391
G1 X152.295 Y96.466 E31.24728
G1 X152.384 Y97.236 E31.32052
G1 X152.399 Y97.714 E31.36572
G1 X152.4 Y125.028 E33.94689
G1 X152.36 Y125.802 E34.02013
G1 X152.241 Y126.569 E34.09348
G1 X152.043 Y127.319 E34.16678
G1 X151.769 Y128.044 E34.24003
G1 X151.422 Y128.738 E34.31335
G1 X151.005 Y129.392 E34.38665
G1 X150.523 Y130 E34.45997
G1 X150.093 Y130.452 E34.51892
G1 X149.517 Y130.971 E34.59219
G1 X148.891 Y131.429 E34.66549
G1 X148.22 Y131.819 E34.73883
G1 X147.514 Y132.139 E34.81208
G1 X146.778 Y132.384 E34.88539
G1 X146.02 Y132.552 E34.95876
G1 X145.25 Y132.641 E35.03201
G1 X144.772 Y132.656 E35.0772
G1 X141.416 Y132.656 E35.39434
G1 X140.641 Y132.616 E35.46768
G1 X139.875 Y132.497 E35.54093
G1 X139.125 Y132.299 E35.61423
G1 X138.399 Y132.025 E35.68757
G1 X137.884 Y131.767 E35.742
G1 X137.658 Y131.971 E35.77077
G1 X137.032 Y132.429 E35.84407
G1 X136.361 Y132.819 E35.91741
G1 X135.655 Y133.139 E35.99066
G1 X134.919 Y133.384 E36.06397
G1 X134.161 Y133.552 E36.13733
G1 X133.391 Y133.641 E36.21058
G1 X132.913 Y133.656 E36.25578
G1 X130.264 Y133.656 E36.50611
G1 X129.489 Y133.616 E36.57944
G1 X128.723 Y133.497 E36.6527
G1 X127.973 Y133.299 E36.726
G1 X127.306 Y133.047 E36.79338
G1 X126.728 Y133.576 E36.86743
G1 X126.105 Y134.038 E36.94072
G1 X125.438 Y134.433 E37.01398
G1 X124.733 Y134.757 E37.0873
G1 X123.999 Y135.007 E37.16057
G1 X123.243 Y135.18 E37.23386
G1 X122.473 Y135.274 E37.30717
G1 X121.939 Y135.293 E37.35766
G1 X120.414 Y135.292 E37.50177
G1 X119.639 Y135.252 E37.57511
G1 X118.873 Y135.132 E37.64838
G1 X118.123 Y134.933 E37.72171
G1 X117.392 Y134.656 E37.79558
G1 X103.006 Y134.656 E39.15506
G1 X102.614 Y134.748 E39.19311
G1 X101.845 Y134.846 E39.26637
G1 X101.069 Y134.865 E39.33972
G1 X100.296 Y134.804 E39.41299
G1 X99.533 Y134.664 E39.4863
G1 X98.789 Y134.445 E39.55959
G1 X98.071 Y134.152 E39.63288
G1 X97.387 Y133.786 E39.70619
G1 X96.744 Y133.351 E39.77955
G1 X96.188 Y132.884 E39.84816
G1 X95.626 Y133.139 E39.90648
G1 X94.89 Y133.384 E39.97979
G1 X94.132 Y133.552 E40.05316
G1 X93.362 Y133.641 E40.12641
G1 X92.884 Y133.656 E40.1716
G1 X90.1 Y133.656 E40.43469
G1 X89.325 Y133.616 E40.50802
G1 X88.559 Y133.497 E40.58128
G1 X87.809 Y133.299 E40.65458
G1 X87.083 Y133.025 E40.72791
G1 X86.39 Y132.678 E40.80115
G1 X85.736 Y132.261 E40.87445
G1 X85.128 Y131.779 E40.94777
G1 X84.777 Y131.95 E40.98467
G1 X84.058 Y132.242 E41.058
G1 X83.313 Y132.457 E41.13128
G1 X82.55 Y132.595 E41.20455
G1 X81.596 Y132.656 E41.29489
G1 X77.688 Y132.656 E41.66419
G1 X76.913 Y132.616 E41.73753
G1 X76.147 Y132.497 E41.81078
G1 X75.397 Y132.299 E41.88409
G1 X74.671 Y132.025 E41.95742
G1 X73.978 Y131.678 E42.03066
G1 X73.324 Y131.261 E42.10395
G1 X72.716 Y130.779 E42.17728
G1 X72.264 Y130.349 E42.23623
G1 X71.745 Y129.773 E42.3095
G1 X71.287 Y129.147 E42.3828
G1 X70.897 Y128.476 E42.45614
G1 X70.577 Y127.77 E42.52939
G1 X70.332 Y127.034 E42.6027
G1 X70.164 Y126.276 E42.67606
G1 X70.075 Y125.506 E42.74931
G1 X70.06 Y125.028 E42.79451
G1 X70.06 Y97.714 E45.37568
G1 X70.1 Y96.939 E45.44901
G1 X70.219 Y96.173 E45.52227
G1 X70.417 Y95.423 E45.59557
G1 X70.691 Y94.697 E45.6689
G1 X71.038 Y94.004 E45.74214
G1 X71.455 Y93.35 E45.81544
G1 X71.937 Y92.742 E45.88876
G1 X72.367 Y92.29 E45.94772
G1 X72.943 Y91.771 E46.02099
G0 F4500 X73.178 Y92.031
G1 F1800 X73.791 Y91.587 E46.09251
G1 X74.448 Y91.209 E46.16414
G1 X75.14 Y90.903 E46.23564
G1 X75.862 Y90.672 E46.30728
G1 X76.603 Y90.518 E46.3788
G1 X77.688 Y90.436 E46.48163
G1 X81.596 Y90.436 E46.85093
G1 X82.352 Y90.476 E46.92247
G1 X83.1 Y90.595 E46.99405
G1 X83.831 Y90.793 E47.06562
G1 X84.538 Y91.067 E47.13727
G1 X85.182 Y91.398 E47.2057
G1 X85.589 Y91.031 E47.25749
G1 X86.202 Y90.587 E47.32901
G1 X86.859 Y90.209 E47.40064
G1 X87.551 Y89.903 E47.47214
G1 X88.273 Y89.672 E47.54378
G1 X89.014 Y89.518 E47.6153
G1 X90.099 Y89.436 E47.71813
G1 X92.883 Y89.436 E47.98121
G1 X93.639 Y89.476 E48.05276
G1 X94.387 Y89.595 E48.12433
G1 X95.118 Y89.793 E48.1959
G1 X95.825 Y90.067 E48.26755
G1 X96.498 Y90.413 E48.33906
G1 X97.131 Y90.829 E48.41064
G1 X97.414 Y91.07 E48.44577
G1 X97.612 Y90.931 E48.46863
G1 X98.274 Y90.563 E48.54021
G1 X98.971 Y90.267 E48.61177
G1 X99.695 Y90.047 E48.68327
G1 X100.439 Y89.903 E48.75489
G1 X101.421 Y89.836 E48.8479
G1 X102.88 Y89.836 E48.98578
G1 X102.973 Y89.744 E48.99814
G1 X103.565 Y89.272 E49.06969
G1 X104.204 Y88.865 E49.14128
G1 X104.882 Y88.527 E49.21287
G1 X105.591 Y88.263 E49.28437
G1 X106.325 Y88.075 E49.35597
G1 X107.074 Y87.966 E49.4275
G1 X107.741 Y87.935 E49.4906
G1 X112.383 Y87.938 E49.92927
G1 X113.139 Y87.978 E50.00081
G1 X113.887 Y88.098 E50.0724
G1 X114.618 Y88.297 E50.14399
G1 X115.324 Y88.571 E50.21556
G1 X115.997 Y88.918 E50.28711
G1 X116.384 Y89.172 E50.33086
G1 X116.975 Y88.796 E50.39705
G1 X117.653 Y88.458 E50.46864
G1 X118.362 Y88.194 E50.54014
G1 X119.096 Y88.006 E50.61174
G1 X119.845 Y87.897 E50.68326
G1 X120.507 Y87.866 E50.74589
G1 X121.93 Y87.866 E50.88036
G1 X122.686 Y87.906 E50.95191
G1 X123.434 Y88.025 E51.02348
G1 X124.165 Y88.223 E51.09505
G1 X124.872 Y88.497 E51.1667
G1 X125.545 Y88.843 E51.23822
G1 X126.178 Y89.259 E51.3098
G1 X126.764 Y89.739 E51.38138
G1 X127.166 Y90.146 E51.43544
G1 X127.715 Y89.903 E51.49217
G1 X128.437 Y89.672 E51.56381
G1 X129.178 Y89.518 E51.63533
G1 X130.263 Y89.436 E51.73816
G1 X132.912 Y89.436 E51.98849
G1 X133.668 Y89.476 E52.06003
G1 X134.416 Y89.595 E52.1316
G1 X135.147 Y89.793 E52.20317
G1 X135.854 Y90.067 E52.27482
G1 X136.527 Y90.413 E52.34634
G1 X137.16 Y90.829 E52.41792
G1 X137.83 Y91.401 E52.50117
G1 X137.884 Y91.366 E52.50725
G1 X138.562 Y91.028 E52.57884
G1 X139.271 Y90.764 E52.65033
G1 X140.005 Y90.576 E52.72194
G1 X140.754 Y90.467 E52.79346
G1 X141.416 Y90.436 E52.85609
G1 X144.771 Y90.436 E53.17314
G1 X145.527 Y90.476 E53.24468
G1 X146.275 Y90.595 E53.31625
G1 X147.006 Y90.793 E53.38782
G1 X147.713 Y91.067 E53.45948
G1 X148.386 Y91.413 E53.53099
G1 X149.019 Y91.829 E53.60257
G1 X149.844 Y92.538 E53.70536
G1 X149.947 Y92.641 E53.71913
G1 X150.454 Y93.204 E53.79073
G1 X150.898 Y93.817 E53.86225
G1 X151.276 Y94.474 E53.93388
G1 X151.582 Y95.166 E54.00538
G1 X151.813 Y95.888 E54.07702
G1 X151.967 Y96.629 E54.14854
G1 X152.049 Y97.714 E54.25137
G1 X152.05 Y125.028 E56.83254
G1 X152.01 Y125.784 E56.90408
G1 X151.891 Y126.532 E56.97566
G1 X151.693 Y127.263 E57.04722
G1 X151.419 Y127.969 E57.11879
G1 X151.073 Y128.643 E57.19039
G1 X150.657 Y129.276 E57.26197
G1 X149.948 Y130.101 E57.36476
G1 X149.845 Y130.204 E57.37853
G1 X149.282 Y130.711 E57.45012
G1 X148.669 Y131.155 E57.52165
G1 X148.012 Y131.533 E57.59328
G1 X147.32 Y131.839 E57.66478
G1 X146.598 Y132.07 E57.73642
G1 X145.857 Y132.224 E57.80794
G1 X144.772 Y132.306 E57.91077
